svg/fluentui-system-icons/ic_fluent_arrow_trending_sparkle_20_regular.svg

<svg width="20" height="20" viewBox="0 0 20 20" fill="none" xmlns="http://www.w3.org/2000/svg">
<path d="M5.87774 2.28225L6.22602 3.35305C6.33432 3.67859 6.51712 3.97441 6.75988 4.21699C7.00265 4.45957 7.29869 4.64223 7.62448 4.75044L8.6961 5.09845L8.71753 5.10381C8.80013 5.13292 8.87165 5.18692 8.92224 5.25836C8.97283 5.3298 9 5.41516 9 5.50268C9 5.5902 8.97283 5.67556 8.92224 5.747C8.87165 5.81844 8.80013 5.87244 8.71753 5.90155L7.64591 6.24956C7.32012 6.35778 7.02408 6.54044 6.78131 6.78302C6.53855 7.0256 6.35575 7.32141 6.24745 7.64696L5.89918 8.71775C5.87004 8.80029 5.816 8.87175 5.7445 8.92231C5.67301 8.97286 5.58758 9.00001 5.5 9.00001C5.41242 9.00001 5.32699 8.97286 5.2555 8.92231C5.24844 8.91732 5.24157 8.91213 5.23486 8.90675C5.17359 8.85755 5.12709 8.79215 5.10082 8.71775L4.75255 7.64696C4.73383 7.59014 4.71284 7.53422 4.68966 7.47932C4.57963 7.21872 4.42023 6.98116 4.21968 6.77999C4.18154 6.74173 4.14208 6.70496 4.10139 6.66973C3.88302 6.48064 3.62919 6.33588 3.35408 6.24421L2.28247 5.8962C2.19987 5.86708 2.12835 5.81308 2.07776 5.74164C2.02717 5.6702 2 5.58484 2 5.49733C2 5.40981 2.02717 5.32445 2.07776 5.25301C2.12835 5.18157 2.19987 5.12757 2.28247 5.09845L3.35408 4.75044C3.67591 4.63941 3.96768 4.45549 4.20656 4.21307C4.44544 3.97065 4.62497 3.67631 4.73111 3.35305L5.07939 2.28225C5.10853 2.19972 5.16257 2.12825 5.23406 2.0777C5.30556 2.02715 5.39098 2 5.47857 2C5.56615 2 5.65158 2.02715 5.72307 2.0777C5.79457 2.12825 5.84861 2.19972 5.87774 2.28225ZM17 6.5C17 6.22386 16.7761 6 16.5 6H12.5C12.2239 6 12 6.22386 12 6.5C12 6.77614 12.2239 7 12.5 7L15.2929 7L10.9999 11.2929L9.35356 9.64646C9.2598 9.55268 9.13262 9.5 9.00001 9.5C8.8674 9.5 8.74022 9.55268 8.64645 9.64645L3.14645 15.1464C2.95118 15.3417 2.95118 15.6583 3.14645 15.8536C3.34171 16.0488 3.65829 16.0488 3.85355 15.8536L8.99999 10.7071L10.6463 12.3535C10.7401 12.4473 10.8673 12.5 10.9999 12.5C11.1325 12.5 11.2597 12.4473 11.3534 12.3536L16 7.70709V10.5C16 10.7761 16.2239 11 16.5 11C16.7761 11 17 10.7761 17 10.5V6.5ZM16.0175 14.9646L16.7829 15.2132L16.7982 15.217C16.8572 15.2378 16.9083 15.2764 16.9445 15.3274C16.9806 15.3784 17 15.4394 17 15.5019C17 15.5644 16.9806 15.6254 16.9445 15.6764C16.9083 15.7275 16.8572 15.766 16.7982 15.7868L16.0328 16.0354C15.8001 16.1127 15.5886 16.2432 15.4152 16.4164C15.2418 16.5897 15.1113 16.801 15.0339 17.0335L14.7851 17.7984C14.7643 17.8573 14.7257 17.9084 14.6746 17.9445C14.6236 17.9806 14.5626 18 14.5 18C14.4374 18 14.3764 17.9806 14.3254 17.9445C14.2743 17.9084 14.2357 17.8573 14.2149 17.7984L13.9661 17.0335C13.8893 16.8003 13.7589 16.5882 13.5855 16.4143C13.412 16.2403 13.2003 16.1093 12.9672 16.0316L12.2018 15.783C12.1428 15.7622 12.0917 15.7236 12.0555 15.6726C12.0194 15.6216 12 15.5606 12 15.4981C12 15.4356 12.0194 15.3746 12.0555 15.3236C12.0917 15.2725 12.1428 15.234 12.2018 15.2132L12.9672 14.9646C13.1971 14.8853 13.4055 14.7539 13.5761 14.5808C13.7467 14.4076 13.875 14.1974 13.9508 13.9665L14.1996 13.2016C14.2204 13.1427 14.259 13.0916 14.31 13.0555C14.3611 13.0194 14.4221 13 14.4847 13C14.5473 13 14.6083 13.0194 14.6593 13.0555C14.7104 13.0916 14.749 13.1427 14.7698 13.2016L15.0186 13.9665C15.0959 14.199 15.2265 14.4103 15.3999 14.5836C15.5733 14.7568 15.7848 14.8873 16.0175 14.9646Z" fill="#212121"/>
</svg>

<svg xmlns="http://www.w3.org/2000/svg" width="20" height="20"><path d="m5.878 2.282.348 1.071A2.206 2.206 0 0 0 7.624 4.75l1.072.348.022.006a.423.423 0 0 1 0 .798l-1.072.348a2.208 2.208 0 0 0-1.399 1.397L5.9 8.717a.423.423 0 0 1-.798 0l-.348-1.07a2.204 2.204 0 0 0-1.399-1.403l-1.072-.348a.423.423 0 0 1 0-.798l1.072-.348a2.208 2.208 0 0 0 1.377-1.397l.348-1.07a.423.423 0 0 1 .799 0ZM17 6.5a.5.5 0 0 0-.5-.5h-4a.5.5 0 0 0 0 1h2.793L11 11.293 9.354 9.646a.5.5 0 0 0-.708 0l-5.5 5.5a.5.5 0 0 0 .708.708L9 10.707l1.646 1.646a.5.5 0 0 0 .707 0L16 7.708V10.5a.5.5 0 0 0 1 0v-4Zm-.983 8.465.766.248.015.004a.303.303 0 0 1 .147.46.302.302 0 0 1-.147.11l-.765.248a1.578 1.578 0 0 0-1 .998l-.248.765a.302.302 0 0 1-.57 0l-.249-.764a1.575 1.575 0 0 0-.999-1.002l-.765-.249a.303.303 0 0 1-.146-.46.302.302 0 0 1 .146-.11l.765-.248a1.577 1.577 0 0 0 .984-.998l.249-.765a.302.302 0 0 1 .57 0l.249.764a1.575 1.575 0 0 0 .998.999Z"/></svg>
